X:721
T: Seanamhac Tube Station
Z: Piano Box Version by Martin Fleischmann
H: Created 2015-04-28 /  Last Modified 2015-04-28
R: jig
M: 6/8
L: 1/8
P:A-B-A-B-C-A-B
K:Ador
P:A
AGE E2 G|ABd e2e|edB dBG|AGE DEG|
~A3 AGE|ABd e2e|edB dBG|~A3 A2 B|
AGE E2 G|ABd [e3E3]|edB dBG|AGE DEG|
EAG E2G|ABd edf|edf edB|~A3 ABd||
P:B
efe edB|~d3 B2 d|edB dBG|AGE D2 d|
efe edB|~d3 age|edB dBG|~A3 ABd|
efe edB|~d3 B2 d|edB ddB|AGE DEG|
AGE E2G|ABd edf|edf edB|~A3 A2 B||
P:C
e3 a3|g2 a b2 g|age d2e|dBA GAB|
~a3 age|~g3 abg|age dBG|A3 ABd|
e3 a3|g2 a bag|age d2e|dBA GAB|
AGE AGE|ABd edf|edf edB|A2 B c{d}cB||

